static/img/theme/logos/submark.svg

<svg width="587" height="238" viewBox="0 0 587 238" fill="none" xmlns="http://www.w3.org/2000/svg">
<path d="M94.5257 60.7099C94.5257 88.43 73.0654 107.039 43.0006 107.039H15V14.2589H43.1232C80.7911 14.2589 94.5257 32.8678 94.5257 60.7302V60.7099ZM76.0903 55.8899C76.0903 39.8842 65.5032 31.1594 50.4606 30.895L39.4647 30.6306V85.42L51.3599 84.5048C66.5251 83.854 76.0698 73.97 76.0698 55.8696L76.0903 55.8899Z" fill="#140A44"/>
<path d="M110.834 33.5738C120.553 21.4189 135.205 12.0499 149.067 12.0499C166.924 12.0499 176.103 16.2804 181.701 33.3055L167.986 40.9616C164.656 34.8945 158.12 30.664 151.065 30.664C138.286 30.664 125.215 41.8903 126.027 61.1648C126.298 73.3197 135.226 84.6698 148.005 84.6698C155.207 84.6698 161.45 81.2441 167.444 75.1564L182.888 93.5229C173.293 103.821 162.366 109.248 152.917 109.248C126.006 109.248 103.362 90.7576 103.362 61.3093C103.362 51.0116 104.819 40.9616 110.813 33.5738H110.834Z" fill="#140A44"/>
<path d="M15 189.125C15 170.195 15 148.347 16.209 129.931C24.7557 130.856 33.1564 131.123 42.8913 130.979L42.2242 175.827C41.5572 200.82 48.1027 205.034 57.9626 205.034C68.7606 205.034 74.243 200.964 73.972 186.618C73.43 167.688 73.43 148.614 72.5128 129.664L94.5257 129.129V189.105C94.5257 199.505 92.9206 206.986 89.7312 211.077C83.4567 219.092 68.7814 226.327 55.1901 226.327C41.5989 226.327 29.0499 221.333 22.7754 213.173C18.106 207.521 15.0417 199.751 15.0417 189.105L15 189.125Z" fill="#140A44"/>
<path d="M107.78 205.737L125.33 195.136C126.761 198.942 130.443 203.118 133.061 204.182C136.068 205.615 140.138 206.147 143.534 206.147C149.69 206.147 156.093 202.094 156.093 196.711C156.093 194.358 155.315 192.004 154.006 190.817C150.856 188.32 144.066 184.268 136.334 182.18C118.396 177.595 111.196 168.815 111.196 156.371C111.196 149.821 112.505 145.503 115.655 141.962C121.668 135.024 133.593 129.129 144.454 129.129C156.113 129.129 171.679 135.556 177.038 146.936C172.333 149.944 164.99 153.219 158.445 156.371C157.136 152.318 153.74 149.555 152.022 148.512C149.281 146.936 146.909 146.424 143.513 146.424C137.888 146.424 133.695 148.778 133.695 155.204C133.695 161.631 139.32 164.762 148.872 167.525C157.115 169.756 162.74 171.987 168.386 175.508C174.399 179.437 178.469 188.607 178.469 196.589C178.469 216.36 161.718 226.327 142.082 226.327C128.725 226.327 113.159 220.699 107.78 205.758V205.737Z" fill="#140A44"/>
<path d="M368.36 78.966C368.36 62.9524 359.504 52.1705 342.07 51.3061C326.434 50.7147 319.055 59.4494 314.904 85.972L267.997 78.6931C270.35 63.2709 278.928 46.3929 282.756 40.2513C293.964 22.5089 319.378 12 353.001 12C376.339 12 413.513 31.5166 411.761 83.9248C411.484 98.4826 406.733 113.905 366.607 150.572L339.764 176.185L413.237 174.729L411.484 223.635L272.148 220.996L273.901 196.248C289.536 156.35 321.73 140.655 339.441 122.594C366.007 96.9814 368.36 88.2467 368.36 78.9205V78.966Z" fill="#140A44"/>
<path d="M429.881 159.659L471.726 153.563C474.948 172.76 483.511 182.358 500.589 182.358C509.704 182.358 519.463 179.174 522.961 175.353C527.381 170.713 529.452 165.754 529.452 159.067C529.452 138.961 519.739 129.09 483.188 131.683V96.4739C514.998 97.3382 526.184 90.0599 526.184 72.0006C526.184 59.1726 515.872 48.9829 503.489 48.9829C486.411 48.9829 478.723 55.6699 473.429 78.6875L440.745 74.5935L433.104 71.6822C435.774 52.1672 444.29 37.3376 449.584 31.515C461.092 20.1426 480.795 12 503.489 12C526.184 12 547.681 21.5983 559.466 35.0177C564.76 41.7046 570.054 56.8526 570.054 71.6822C570.054 78.9605 567.982 92.6528 565.635 99.0668C563.885 104.298 558.269 109.256 551.778 113.623C565.312 124.404 573 136.914 573 158.158C573 177.354 565.635 199.78 552.377 211.153C543.262 219.295 521.718 225.709 499.945 225.709C453.405 225.709 432.782 197.46 429.835 159.613L429.881 159.659Z" fill="#140A44"/>
<g clip-path="url(#clip0_243_2112)">
<path d="M239.327 12.0499L239.56 54.8776L237.823 97.6856L238.252 140.474L239.073 183.301L239.179 226.01L207.187 226.327L207.42 183.301L208.352 140.493L209.602 97.6856L208.945 54.8776L207.78 12.2282L239.327 12.0499Z" fill="#4975C3"/>
</g>
<defs>
<clipPath id="clip0_243_2112">
<rect width="33.1357" height="214.278" fill="white" transform="translate(207.187 12.0499)"/>
</clipPath>
</defs>
</svg>

<?xml version="1.0" encoding="UTF-8"?>
<svg id="Layer_1" data-name="Layer 1" xmlns="http://www.w3.org/2000/svg" xmlns:xlink="http://www.w3.org/1999/xlink" viewBox="0 0 587 238">
  <defs>
    <style>
      .cls-1 {
        fill: none;
      }

      .cls-2 {
        clip-path: url(#clippath);
      }

      .cls-3 {
        fill: #140a44;
      }

      .cls-4 {
        fill: #4975c3;
      }
    </style>
    <clipPath id="clippath">
      <rect class="cls-1" x="207.19" y="12.05" width="33.14" height="214.28"/>
    </clipPath>
  </defs>
  <path class="cls-3" d="M94.53,60.71c0,27.72-21.46,46.33-51.53,46.33H15V14.26h28.12c37.67,0,51.4,18.61,51.4,46.47v-.02Zm-18.44-4.82c0-16.01-10.59-24.73-25.63-24.99l-11-.26v54.79l11.9-.92c15.17-.65,24.71-10.53,24.71-28.64l.02,.02Z"/>
  <path class="cls-3" d="M110.83,33.57c9.72-12.15,24.37-21.52,38.23-21.52,17.86,0,27.04,4.23,32.63,21.26l-13.72,7.66c-3.33-6.07-9.87-10.3-16.92-10.3-12.78,0-25.85,11.23-25.04,30.5,.27,12.15,9.2,23.51,21.98,23.51,7.2,0,13.44-3.43,19.44-9.51l15.44,18.37c-9.6,10.3-20.52,15.73-29.97,15.73-26.91,0-49.56-18.49-49.56-47.94,0-10.3,1.46-20.35,7.45-27.74h.02Z"/>
  <path class="cls-3" d="M15,189.12c0-18.93,0-40.78,1.21-59.19,8.55,.93,16.95,1.19,26.68,1.05l-.67,44.85c-.67,24.99,5.88,29.21,15.74,29.21,10.8,0,16.28-4.07,16.01-18.42-.54-18.93-.54-38-1.46-56.95l22.01-.54v59.98c0,10.4-1.61,17.88-4.79,21.97-6.27,8.01-20.95,15.25-34.54,15.25s-26.14-4.99-32.41-13.15c-4.67-5.65-7.73-13.42-7.73-24.07l-.04,.02Z"/>
  <path class="cls-3" d="M107.78,205.74l17.55-10.6c1.43,3.81,5.11,7.98,7.73,9.05,3.01,1.43,7.08,1.96,10.47,1.96,6.16,0,12.56-4.05,12.56-9.44,0-2.35-.78-4.71-2.09-5.89-3.15-2.5-9.94-6.55-17.67-8.64-17.94-4.58-25.14-13.36-25.14-25.81,0-6.55,1.31-10.87,4.46-14.41,6.01-6.94,17.94-12.83,28.8-12.83,11.66,0,27.23,6.43,32.58,17.81-4.71,3.01-12.05,6.28-18.59,9.43-1.31-4.05-4.71-6.82-6.42-7.86-2.74-1.58-5.11-2.09-8.51-2.09-5.62,0-9.82,2.35-9.82,8.78s5.62,9.56,15.18,12.32c8.24,2.23,13.87,4.46,19.51,7.98,6.01,3.93,10.08,13.1,10.08,21.08,0,19.77-16.75,29.74-36.39,29.74-13.36,0-28.92-5.63-34.3-20.57v-.02Z"/>
  <g class="cls-2">
    <path class="cls-4" d="M239.33,12.05l.23,42.83-1.74,42.81,.43,42.79,.82,42.83,.11,42.71-31.99,.32,.23-43.03,.93-42.81,1.25-42.81-.66-42.81-1.17-42.65,31.55-.18Z"/>
  </g>
  <g>
    <path class="cls-3" d="M366.41,137.5c7.99-8.17,14.52-15.76,19.58-22.78,5.06-7.01,8.83-13.94,11.32-20.78,2.48-6.83,3.73-13.81,3.73-20.91,0-11.19-2.76-20.95-8.26-29.3-5.51-8.35-13.23-14.83-23.18-19.45-9.95-4.62-21.49-6.93-34.63-6.93-10.48,0-20.51,2.09-30.1,6.26-9.59,4.18-17.76,10.08-24.51,17.72-6.75,7.64-11.19,16.61-13.32,26.91l35.96,11.72c2.66-8.52,6.83-14.87,12.52-19.05,5.68-4.17,12.16-6.26,19.45-6.26s13.01,2.09,17.72,6.26c4.7,4.17,7.06,9.9,7.06,17.18,0,4.09-1.02,8.26-3.06,12.52-2.04,4.26-5.77,9.55-11.19,15.85-5.42,6.31-13.37,14.88-23.84,25.71l-53.28,54.88v31.97h134.53v-34.63h-82.05l45.56-46.89Z"/>
    <path class="cls-3" d="M541.36,141.77V20.55h-43.96l-85.25,121.21v34.63h87.91v42.62h41.29v-42.62h30.64v-34.63h-30.64Zm-89.02,0l47.73-70.67v70.67h-47.73Z"/>
  </g>
</svg>
